X: 20
T:Pretty Girl
M:8/8
L:1/8
Q:120
C:Hogsnort Rupert's Original Flagon Band
K:D
A|"D"d d2 d2 A d2|f f2 f3 z d|
"A"e2 e e2 e2 d-|"G"d d2 D-"D"D3z|!
"D"d d2 d2 A d2|f f2 f3 z d|
"A"e2 e e2 e2 d-|"G"d d2 D-"D"D3z|!
"Bm"z2 BB B4|"D"z2 dd d4|
"E"z2 ee e4|"A"zzz2"G"zzz2|!
"D"ddzd2Ad2|ffzf3dd|
"A"e2e2"G"dd2d-|"D"d3D4A|!
"D"d2dd2Ad2|ff2f4d|
"A"e2e2"G"dd2d-|"D"d3D4z|
T:Instrumental
"D"[D4A4d4f4]z4|[D4A4d4a4][D4A4d4f4]|
[D2A2d2f2] [DAdf]"A"[A,2E2A2c2e2][A,EAce] "D"[D2A2d2f2]|
"D"[D4A4d4f4]z4|[D4A4d4a4][D4A4d4f4]|
[D2A2d2f2] [DAdf]"A"[A,2E2A2c2e2][A,EAce] "D"[DAdf] :||
